src/img/mao.svg

<svg width="278" height="305" viewBox="0 0 278 305" fill="none" xmlns="http://www.w3.org/2000/svg">
<path d="M277.952 0L70.2187 0C61.4593 0 54.3521 7.07086 54.352 15.7856C54.352 20.1429 56.1353 24.0567 58.9939 26.9268C61.8787 29.7708 65.8387 31.545 70.2184 31.545H137.409C148.03 31.545 152.515 45.0345 143.965 51.3488L6.98705 152.481C-0.723365 158.169 -2.29702 169.049 3.49877 176.694C6.88185 181.156 12.0483 183.556 17.3197 183.556C20.2569 183.556 23.2204 182.8 25.9479 181.26L126.288 123.858C131.481 120.91 138.09 122.553 141.184 127.615L144.174 132.39C146.718 136.539 146.272 141.888 142.967 145.488L47.4523 251.082C41.3155 257.866 41.2367 268.172 47.2947 275.034C50.9138 279.131 55.9229 281.192 60.932 281.192C65.9936 281.192 71.0814 279.079 74.7006 274.878L168.852 165.422C172.576 161.065 179.054 160.308 183.696 163.648L183.748 163.674C187.918 166.675 189.465 172.154 187.42 176.903L143.412 279.261C139.189 289.098 144.277 300.422 154.479 303.84C156.42 304.492 158.386 304.805 160.353 304.805C167.749 304.805 174.725 300.317 177.531 293.064L220.884 180.817C222.667 176.224 227.309 173.38 232.213 173.824C237.904 174.372 242.257 179.095 242.257 184.757L242.257 184.861L241.654 254.787C241.549 265.198 250.36 273.547 260.851 272.921C265.624 272.634 269.898 270.547 272.967 267.311C275.983 264.076 277.871 259.718 277.871 254.918L277.873 63.7163C277.873 63.351 277.899 62.9596 277.952 62.5683C278.503 56.5932 277.953 51.3488 277.952 0Z" fill="#FFAE00"/>
</svg>

<svg width="278" height="305" fill="none" xmlns="http://www.w3.org/2000/svg"><path d="M277.952 0H70.219c-8.76 0-15.867 7.07-15.867 15.786 0 4.357 1.783 8.27 4.642 11.14 2.885 2.845 6.845 4.619 11.224 4.619h67.191c10.621 0 15.106 13.49 6.556 19.804L6.987 152.48c-7.71 5.688-9.284 16.568-3.488 24.213a17.315 17.315 0 0 0 13.82 6.862c2.938 0 5.901-.756 8.629-2.296l100.34-57.402c5.193-2.948 11.802-1.305 14.896 3.757l2.99 4.775c2.544 4.149 2.098 9.498-1.207 13.098L47.452 251.082c-6.136 6.784-6.215 17.09-.157 23.952a18.133 18.133 0 0 0 13.637 6.158c5.062 0 10.15-2.113 13.769-6.314l94.151-109.456c3.724-4.357 10.202-5.114 14.844-1.774l.052.026a10.942 10.942 0 0 1 3.672 13.229l-44.008 102.358c-4.223 9.837.865 21.161 11.067 24.579 1.941.652 3.907.965 5.874.965 7.396 0 14.372-4.488 17.178-11.741l43.353-112.247c1.783-4.593 6.425-7.437 11.329-6.993 5.691.548 10.044 5.271 10.044 10.933v.104l-.603 69.926c-.105 10.411 8.706 18.76 19.197 18.134 4.773-.287 9.047-2.374 12.116-5.61 3.016-3.235 4.904-7.593 4.904-12.393l.002-191.202c0-.365.026-.756.079-1.148.551-5.975.001-11.22 0-62.568z" fill="#FFAE00"/></svg>
